packages/radix-icons/twoTone/15/border-right.svg

<svg width="15" height="15" fill="none" xmlns="http://www.w3.org/2000/svg">
  <path
    fill-rule="evenodd"
    clip-rule="evenodd"
    d="M3 2C2.44771 2 2 2.44771 2 3L2 12C2 12.5523 2.44771 13 3 13L12 13C12.5523 13 13 12.5523 13 12L13 3C13 2.44772 12.5523 2 12 2L3 2Z"
    fill="currentColor"
    opacity=".2"
  />
  <path
    fill-rule="evenodd"
    clip-rule="evenodd"
    d="M11 2.9L3 2.9C2.94477 2.9 2.9 2.94477 2.9 3L2.9 12C2.9 12.0552 2.94477 12.1 3 12.1L11 12.1L11 2.9ZM2 3C2 2.44771 2.44771 2 3 2L12 2C12.5523 2 13 2.44772 13 3L13 12C13 12.5523 12.5523 13 12 13L3 13C2.44771 13 2 12.5523 2 12L2 3Z"
    fill="currentColor"
  />
</svg>

<svg width="15" height="15" fill="none" xmlns="http://www.w3.org/2000/svg">
  <path
    fill-rule="evenodd"
    clip-rule="evenodd"
    d="M3 2a1 1 0 00-1 1v9a1 1 0 001 1h9a1 1 0 001-1V3a1 1 0 00-1-1H3z"
    fill="currentColor"
    opacity=".2"
  />
  <path
    fill-rule="evenodd"
    clip-rule="evenodd"
    d="M11 2.9H3a.1.1 0 00-.1.1v9a.1.1 0 00.1.1h8V2.9zM2 3a1 1 0 011-1h9a1 1 0 011 1v9a1 1 0 01-1 1H3a1 1 0 01-1-1V3z"
    fill="currentColor"
  />
</svg>
